dist/svg/flickr.svg

<!-- Generated by IcoMoon.io -->
<svg version="1.1" xmlns="http://www.w3.org/2000/svg" width="27" height="32" viewBox="0 0 27 32">
<title>flickr</title>
<path d="M22.286 2.286q2.125 0 3.634 1.509t1.509 3.634v17.143q0 2.125-1.509 3.634t-3.634 1.509h-17.143q-2.125 0-3.634-1.509t-1.509-3.634v-17.143q0-2.125 1.509-3.634t3.634-1.509h17.143zM12.464 16q0-1.571-1.107-2.679t-2.679-1.107-2.679 1.107-1.107 2.679 1.107 2.679 2.679 1.107 2.679-1.107 1.107-2.679zM22.536 16q0-1.571-1.107-2.679t-2.679-1.107-2.679 1.107-1.107 2.679 1.107 2.679 2.679 1.107 2.679-1.107 1.107-2.679z"></path>
</svg>

<svg version="1.1" xmlns="http://www.w3.org/2000/svg" viewBox="0 0 27 32"><path d="M22.286 2.286q2.125 0 3.634 1.509t1.509 3.634v17.143q0 2.125-1.509 3.634t-3.634 1.509H5.143q-2.125 0-3.634-1.509T0 24.572V7.429q0-2.125 1.509-3.634t3.634-1.509h17.143zM12.464 16q0-1.571-1.107-2.679t-2.679-1.107-2.679 1.107T4.892 16t1.107 2.679 2.679 1.107 2.679-1.107T12.464 16zm10.072 0q0-1.571-1.107-2.679t-2.679-1.107-2.679 1.107T14.964 16t1.107 2.679 2.679 1.107 2.679-1.107T22.536 16z"/></svg>
